X:119
T:ROWAPRN1- The rown't in her apron
S:Scots Musical Museum, #424
Q:1/4=120
L:1/4
M:C
K:Dm
FFcA/ G/|F(G/A/)c2|fdd*B/A/)|G(A/c/)d3/2e/|ff/ f/ f (g/a/)|\
F3/4 F/4 (F/G/) (B/A/) G/ F/|Gfd(c/A/)|G2F2|]

